contributed-vectors/sky_alt_three.svg

<svg xmlns="http://www.w3.org/2000/svg" xml:space="preserve" style="fill-rule:evenodd;clip-rule:evenodd;stroke-linejoin:round;stroke-miterlimit:2" viewBox="0 0 192 192"><path d="M164.5 21.5c0-5.519-4.481-10-10-10h-133c-5.519 0-10 4.481-10 10v133c0 5.519 4.481 10 10 10h133c5.519 0 10-4.481 10-10v-133Z" style="fill:#ababff" transform="translate(8 8)"/><path d="M124.029 102.604c-6.62 6.393-16.323 10.431-27.129 10.431-10.495 0-19.95-3.809-26.548-9.884 0 0 13.103-17.07 17.608-23.493 3.386-4.828 9.422-15.047 9.422-15.047l26.647 37.993Z" style="fill:#fff" transform="translate(-1.19 .004)"/><path d="M88.761 120.08h-.884a1.243 1.243 0 0 1-1.241-1.24v-2.197a.963.963 0 0 0-.186-.569l-.594-.814a.966.966 0 0 1-.186-.57v-3.372h22.377v3.372a.966.966 0 0 1-.186.57l-.594.814a.963.963 0 0 0-.186.569v2.197a1.243 1.243 0 0 1-1.241 1.24h-.919l-1.6 17.188a1.214 1.214 0 0 1-1.208 1.101h-.199a1.213 1.213 0 0 1-1.211-1.143l-1-17.146h-.36c-.975 0-1.765-.79-1.765-1.766v-.549a.719.719 0 0 0-.718-.718h-.002a.718.718 0 0 0-.718.718v.549c0 .976-.791 1.766-1.766 1.766h-.394l-1.601 17.188a1.213 1.213 0 0 1-1.207 1.101h-.2a1.214 1.214 0 0 1-1.211-1.143l-1-17.146Z" style="fill:#fff" transform="translate(-1.19 .004)"/><path d="M96.307 57.87c-.645-1.136-1.044-2.625-.307-4.247 3.341 1.268 4.327 3.869 4.327 3.869a7.757 7.757 0 0 1 6.1 5.383c.749.84 1.919 2.056 3.336 3.2-2.37 3.341-4.395 4.33-5.375 4.623a7.715 7.715 0 0 1-5.37 2.168c-2.177 0-4.144-.9-5.551-2.348-1.086-.455-2.856-1.594-4.876-4.443a28.369 28.369 0 0 0 2.884-2.706 7.765 7.765 0 0 1 4.832-5.499Z" style="fill:#fff" transform="translate(-3.177 .004)"/></svg>

<?xml version="1.0" encoding="UTF-8" standalone="no"?>
<!DOCTYPE svg PUBLIC "-//W3C//DTD SVG 1.1//EN" "http://www.w3.org/Graphics/SVG/1.1/DTD/svg11.dtd">
<svg width="100%" height="100%" viewBox="0 0 192 192" version="1.1" xmlns="http://www.w3.org/2000/svg" xmlns:xlink="http://www.w3.org/1999/xlink" xml:space="preserve" xmlns:serif="http://www.serif.com/" style="fill-rule:evenodd;clip-rule:evenodd;stroke-linejoin:round;stroke-miterlimit:2;">
    <g transform="matrix(1,0,0,1,8,8)">
        <path d="M164.5,21.5C164.5,15.981 160.019,11.5 154.5,11.5L21.5,11.5C15.981,11.5 11.5,15.981 11.5,21.5L11.5,154.5C11.5,160.019 15.981,164.5 21.5,164.5L154.5,164.5C160.019,164.5 164.5,160.019 164.5,154.5L164.5,21.5Z" style="fill:rgb(171,171,255);"/>
    </g>
    <g transform="matrix(1,0,0,1,-1.19018,0.00434332)">
        <g id="Layer2">
            <g>
                <path d="M124.029,102.604C117.409,108.997 107.706,113.035 96.9,113.035C86.405,113.035 76.95,109.226 70.352,103.151C70.352,103.151 83.455,86.081 87.96,79.658C91.346,74.83 97.382,64.611 97.382,64.611L124.029,102.604Z" style="fill:white;"/>
                <path d="M88.761,120.08L87.877,120.08C87.548,120.08 87.232,119.949 86.999,119.717C86.767,119.484 86.636,119.169 86.636,118.84C86.636,118.064 86.636,117.123 86.636,116.643C86.636,116.439 86.571,116.239 86.45,116.074C86.279,115.839 86.027,115.494 85.856,115.26C85.735,115.094 85.67,114.895 85.67,114.69C85.67,113.798 85.67,111.318 85.67,111.318L108.047,111.318L108.047,114.69C108.047,114.895 107.982,115.094 107.861,115.26C107.69,115.494 107.438,115.839 107.267,116.074C107.146,116.239 107.081,116.439 107.081,116.643C107.081,117.123 107.081,118.064 107.081,118.84C107.081,119.169 106.95,119.484 106.718,119.717C106.485,119.949 106.17,120.08 105.84,120.08L104.921,120.08L103.321,137.268C103.263,137.892 102.739,138.369 102.113,138.369C102.047,138.369 101.98,138.369 101.914,138.369C101.271,138.369 100.74,137.868 100.703,137.226L99.703,120.08L99.343,120.08C98.368,120.08 97.578,119.29 97.578,118.314C97.578,118.121 97.578,117.934 97.578,117.765C97.578,117.369 97.256,117.047 96.86,117.047C96.859,117.047 96.858,117.047 96.858,117.047C96.461,117.047 96.14,117.369 96.14,117.765C96.14,117.934 96.14,118.121 96.14,118.314C96.14,119.29 95.349,120.08 94.374,120.08L93.98,120.08L92.379,137.268C92.321,137.892 91.798,138.369 91.172,138.369C91.105,138.369 91.039,138.369 90.972,138.369C90.33,138.369 89.799,137.868 89.761,137.226L88.761,120.08Z" style="fill:white;"/>
                <g transform="matrix(1,0,0,1,-1.9864,0)">
                    <path d="M96.307,57.87C95.662,56.734 95.263,55.245 96,53.623C99.341,54.891 100.327,57.492 100.327,57.492L100.327,57.492C103.232,57.988 105.587,60.104 106.427,62.875C107.176,63.715 108.346,64.931 109.763,66.075C107.393,69.416 105.368,70.405 104.388,70.698C102.996,72.04 101.102,72.866 99.018,72.866C96.841,72.866 94.874,71.966 93.467,70.518C92.381,70.063 90.611,68.924 88.591,66.075C89.749,65.14 90.742,64.156 91.475,63.369C92.064,60.831 93.903,58.77 96.307,57.87Z" style="fill:white;"/>
                </g>
            </g>
        </g>
    </g>
</svg>
